X:76
T:Under the Water
M:2/4
L:1/8
B:Thompson's Compleat Collection of 200 Favourite Country Dances, vol. 1 (London, 1757)
Z:Transcribed and edited by Fynnian Titford-Mock, 2007
Z:abc's:AK/Fiddler's Companion
K:G
(gf)(ed)|cB AG|(gf) (ed)|e2 g2|(gf) (ed)|cB AG|gg GG|B2 d2:|
|:(G/A/B/c/) dB|dBdB|(A/B/c/d/) ec|ec g2|(G/A/B/c/) dB|dBdB|gfed|e2g2:|

